**kern
*clefG2
*k[]
*M4/4
=1-
16b#
16b#
4cc
4dd
8cc 8a 8f
8b#
16cc
(16b#
=2
8.b
8cc)
16cc
2cc
8cc 8a 8f
=3
1b
=4
4cc#
2cc#
4dd
=5
8cc
(4cc
2cc)
8dd
=6
4ee
16r
16dd
(2cc
8b 8g 8e)
=7
4cc 4a
16dd
16dd
8cc
8.cc
16cc
8cc
(16b#
16b#)
=8
16b#
2a
8g
16f
16g 16e 16c
8g
16r
=9
8a-
8a-
16a#
16b-
8r
8a
(8b-
4cc)
=10
1dd
=11
*-